; generated by PrusaSlicer 2.4.2+win64 on 2023-05-01 at 19:10:00 UTC

; 

; external perimeters extrusion width = 0.60mm
; perimeters extrusion width = 0.50mm
; infill extrusion width = 0.50mm
; solid infill extrusion width = 0.50mm
; top infill extrusion width = 0.45mm
; first layer extrusion width = 0.42mm

; external perimeters extrusion width = 0.60mm
; perimeters extrusion width = 0.50mm
; infill extrusion width = 0.50mm
; solid infill extrusion width = 0.50mm
; top infill extrusion width = 0.45mm
; first layer extrusion width = 0.42mm

; external perimeters extrusion width = 0.60mm
; perimeters extrusion width = 0.50mm
; infill extrusion width = 0.50mm
; solid infill extrusion width = 0.50mm
; top infill extrusion width = 0.45mm
; first layer extrusion width = 0.42mm

; external perimeters extrusion width = 0.60mm
; perimeters extrusion width = 0.50mm
; infill extrusion width = 0.50mm
; solid infill extrusion width = 0.50mm
; top infill extrusion width = 0.45mm
; first layer extrusion width = 0.42mm

M73 P0 R193
M73 Q0 S195
M201 X1000 Y1000 Z200 E5000 ; sets maximum accelerations, mm/sec^2
M203 X200 Y200 Z12 E120 ; sets maximum feedrates, mm / sec
M204 P1250 R1250 T1250 ; sets acceleration (P, T) and retract acceleration (R), mm/sec^2
M205 X8.00 Y8.00 Z0.40 E4.50 ; sets the jerk limits, mm/sec
M205 S0 T0 ; sets the minimum extruding and travel feed rate, mm/sec
M107
;TYPE:Custom
M862.3 P "MK3S" ; printer model check
M862.1 P0.4 ; nozzle diameter check
M115 U3.10.1 ; tell printer latest fw version
G90 ; use absolute coordinates
M83 ; extruder relative mode
M104 S240 ; set extruder temp
M140 S100 ; set bed temp
M190 S100 ; wait for bed temp
M109 S240 ; wait for extruder temp
G28 W ; home all without mesh bed level
G80 ; mesh bed leveling
G1 Z0.2 F720
G1 Y-3 F1000 ; go outside print area
G92 E0
G1 X60 E9 F1000 ; intro line
G1 X100 E12.5 F1000 ; intro line
G92 E0
M221 S95

; Don't change E values below. Excessive value can damage the printer.

G21 ; set units to millimeters
G90 ; use absolute coordinates
M83 ; use relative distances for extrusion
M900 K0.04 ; Filament gcode LA 1.5
M900 K20 ; Filament gcode LA 1.0
M107
;LAYER_CHANGE
;Z:0.3
;HEIGHT:0.3
;BEFORE_LAYER_CHANGE
G92 E0.0
;0.3


G1 E-.8 F2100
G1 Z.4 F10800
;AFTER_LAYER_CHANGE
;0.3
G1 X58.536 Y23.7
G1 Z.3
G1 E.8 F2100
M204 S1000
;TYPE:Skirt/Brim
;WIDTH:0.42
G1 F1200
G1 X59.58 Y22.831 E.06024
G1 X60.5 Y22.644 E.04163
G1 X115.672 Y22.651 E2.44716
G1 X170.172 Y26.651 E2.42384
G1 X171.441 Y27.136 E.06024
G1 X172.326 Y28.625 E.07681
G1 X174.856 Y44.5 E.71302
G1 X174.856 Y99.5 E2.43951
G1 X174.464 Y100.8 E.06024
G1 X173.118 Y101.773 E.07366
G1 X116.118 Y117.273 E2.62003
G1 X115.5 Y117.356 E.02766
M73 Q0 S194
G1 X60.5 Y117.356 E2.43951
G1 X59.2 Y116.964 E.06024
G1 X58.331 Y115.92 E.06024
G1 X58.144 Y115 E.04163
G1 X58.144 Y25 E3.99193
G1 X58.519 Y23.757 E.05758
;WIPE_START
G1 F8640
G1 X59.58 Y22.831 E-.32524
G1 X60.5 Y22.644 E-.21671
G1 X61.444 Y22.644 E-.21805
;WIPE_END
G1 E-.04 F2100
G1 Z.7 F10800
G1 X116.018 Y19.491
G1 Z.3
G1 E.8 F2100
G1 F1200
G1 X117.279 Y19.748 E.05709
G1 X118.462 Y20.315 E.05818
G1 X119.838 Y21.562 E.08238
G1 X120.586 Y22.833 E.06541
G1 X120.716 Y23.199 F10800
G1 F1200
G1 X120.801 Y23.508 E.01422
G1 X124.918 Y23.508 E.18259
;WIPE_START
G1 F8640
G1 X121.626 Y23.508 E-.76
;WIPE_END
G1 E-.04 F2100
G1 Z.7 F10800
G1 X129.767 Y23.507
G1 Z.3
G1 E.8 F2100
G1 F1200
G1 X170.616 Y23.502 E1.81182
G1 X171.706 Y23.725 E.04935
G1 X172.739 Y24.169 E.04987
G1 X174.598 Y25.901 E.11272
G1 X175.238 Y27.184 E.06358
G1 X175.513 Y28.532 E.06102
G1 X175.453 Y35.977 E.33025
G1 X175.035 Y37.308 E.06186
G1 X174.289 Y38.499 E.06234
G1 X174.107 Y38.671 E.01114
G1 X173.794 Y38.966 F10800
G1 F1200
G1 X173.651 Y39.101 E.00867
G1 X173.821 Y39.137 E.00768
G1 X174.195 Y39.225 F10800
G1 F1200
G1 X175.3 Y39.71 E.05349
G1 X176.785 Y41 E.08727
G1 X177.639 Y42.42 E.07349
G1 X178.012 Y44.007 E.07233
G1 X178.012 Y100.086 E2.48735
G1 X177.308 Y102.284 E.10241
G1 X176.717 Y103.059 E.04321
G1 X175.376 Y104.244 E.07937
G1 X174.2 Y104.777 E.05726
G1 X172.973 Y105.012 E.05542
G1 X161.885 Y105.012 E.49183
;WIPE_START
G1 F8640
G1 X165.176 Y105.012 E-.76
;WIPE_END
G1 E-.04 F2100
G1 Z.7 F10800
G1 X160.529 Y105.012
G1 Z.3
G1 E.8 F2100
G1 F1200
G1 X121.005 Y105.012 E1.75311
G1 X120.943 Y115.777 E.47748
G1 X120.905 Y116.156 F10800
G1 F1200
G1 X120.542 Y117.296 E.05308
G1 X119.652 Y118.656 E.07212
G1 X118.253 Y119.821 E.08076
G1 X117.473 Y120.182 E.03811
G1 X116.6 Y120.436 E.04033
G1 X59.916 Y120.512 E2.51419
G1 X57.716 Y119.808 E.1025
G1 X56.941 Y119.217 E.04321
G1 X55.756 Y117.876 E.07937
G1 X55.223 Y116.7 E.05726
G1 X54.988 Y115.473 E.05542
G1 X54.988 Y24.414 E4.0389
G1 X55.692 Y22.216 E.10241
G1 X56.283 Y21.441 E.04321
G1 X57.624 Y20.256 E.07937
G1 X58.8 Y19.723 E.05726
G1 X60.027 Y19.488 E.05543
G1 X116.018 Y19.491 E2.48346
;WIPE_START
G1 F8640
G1 X112.726 Y19.491 E-.76
;WIPE_END
G1 E-.04 F2100
G1 Z.7 F10800
G1 X120.155 Y22.801
G1 Z.3
G1 E.8 F2100
G1 F1200
G1 X119.546 Y21.767 E.05326
G1 X118.244 Y20.597 E.07761
G1 X117.147 Y20.079 E.05381
G1 X116 Y19.847 E.05192
G1 X60.044 Y19.844 E2.48191
G1 X58.889 Y20.068 E.05221
G1 X57.797 Y20.568 E.05328
G1 X56.533 Y21.694 E.07509
G1 X55.994 Y22.406 E.03958
G1 X55.344 Y24.442 E.09481
G1 X55.344 Y115.456 E4.03691
G1 X55.568 Y116.611 E.0522
M73 P0 R192
G1 X56.068 Y117.703 E.05327
G1 X57.194 Y118.967 E.07509
G1 X57.906 Y119.506 E.03958
G1 X59.943 Y120.157 E.09488
G1 X116.573 Y120.081 E2.51179
G1 X117.358 Y119.846 E.03634
G1 X118.081 Y119.509 E.03538
G1 X119.403 Y118.401 E.07649
G1 X120.23 Y117.123 E.06752
G1 X120.499 Y116.266 E.03985
G1 X120.594 Y115.872 F10800
G1 F1200
G1 X120.651 Y104.656 E.49745
G1 X161.837 Y104.656 E1.82682
;WIPE_START
G1 F8640
G1 X158.546 Y104.656 E-.76
;WIPE_END
G1 E-.04 F2100
G1 Z.7 F10800
G1 X163.192 Y104.656
G1 Z.3
G1 E.8 F2100
G1 F1200
G1 X172.956 Y104.656 E.43306
G1 X174.111 Y104.432 E.0522
G1 X175.203 Y103.932 E.05327
G1 X176.467 Y102.806 E.07509
G1 X177.006 Y102.094 E.03958
G1 X177.656 Y100.058 E.09481
G1 X177.656 Y44.028 E2.48519
G1 X177.3 Y42.53 E.06832
G1 X176.496 Y41.21 E.06856
G1 X175.089 Y39.997 E.08238
G1 X174.261 Y39.641 E.03997
G1 X173.881 Y39.514 F10800
G1 F1200
G1 X172.88 Y39.323 E.04521
G1 X173.726 Y38.543 E.05108
G1 X174.037 Y38.232 F10800
G1 F1200
G1 X174.722 Y37.138 E.05727
G1 X175.098 Y35.948 E.05536
G1 X175.157 Y28.548 E.32822
G1 X174.895 Y27.279 E.05746
G1 X174.295 Y26.09 E.0591
G1 X172.569 Y24.483 E.10459
G1 X171.615 Y24.069 E.04613
G1 X170.597 Y23.857 E.04611
G1 X134.604 Y23.862 E1.59647
;WIPE_START
G1 F8640
G1 X137.896 Y23.861 E-.76
;WIPE_END
G1 E-.04 F2100
G1 Z.7 F10800
G1 X129.754 Y23.863
G1 Z.3
G1 E.8 F2100
G1 F1200
G1 X120.525 Y23.864 E.40937
G1 X120.343 Y23.172 E.03173
G1 X119.943 Y23.142 F10800
G1 F1200
G1 X119.999 Y23.238 E.00491
G1 X120.246 Y24.219 E.0449
G1 X134.591 Y24.218 E.63626
;WIPE_START
G1 F8640
G1 X131.3 Y24.218 E-.76
;WIPE_END
G1 E-.04 F2100
G1 Z.7 F10800
G1 X139.441 Y24.217
G1 Z.3
G1 E.8 F2100
G1 F1200
G1 X170.579 Y24.213 E1.38114
G1 X171.49 Y24.402 E.04128
G1 X172.4 Y24.797 E.04398
G1 X173.993 Y26.279 E.0965
G1 X174.552 Y27.376 E.05461
G1 X174.801 Y28.565 E.05387
G1 X174.742 Y35.918 E.32617
G1 X174.409 Y36.968 E.04887
G1 X173.952 Y37.698 E.0382
G1 X173.66 Y38.128 F10800
G1 F1200
G1 X172.702 Y39.002 E.05752
G1 X171.854 Y39.425 E.04202
G1 X171.918 Y39.699 E.01246
G1 X172.961 Y39.702 E.04627
G1 X173.941 Y39.89 E.04423
G1 X174.328 Y40.057 F10800
G1 F1200
G1 X174.922 Y40.313 E.02874
G1 X176.241 Y41.459 E.07749
G1 X176.981 Y42.689 E.06365
G1 X177.301 Y44.049 E.06196
G1 X177.301 Y100.031 E2.48307
G1 X176.703 Y101.905 E.08726
M73 Q0 S193
G1 X176.216 Y102.554 E.03597
G1 X175.029 Y103.621 E.07081
G1 X174.021 Y104.088 E.04927
G1 X172.938 Y104.301 E.04895
G1 X164.5 Y104.301 E.37428
;WIPE_START
G1 F8640
G1 X167.791 Y104.301 E-.76
;WIPE_END
G1 E-.04 F2100
G1 Z.7 F10800
G1 X163.145 Y104.301
G1 Z.3
G1 E.8 F2100
G1 F1200
G1 X120.296 Y104.301 E1.90053
G1 X120.246 Y115.884 E.51379
G1 X120.219 Y115.974 E.00415
G1 X120.095 Y116.376 F10800
G1 F1200
G1 X119.917 Y116.953 E.02677
G1 X119.153 Y118.147 E.06291
G1 X117.909 Y119.197 E.07216
G1 X117.22 Y119.518 E.03373
G1 X116.497 Y119.732 E.03347
G1 X59.971 Y119.801 E2.5072
G1 X58.095 Y119.203 E.08732
G1 X57.446 Y118.716 E.03597
G1 X56.379 Y117.529 E.07081
G1 X55.912 Y116.521 E.04927
G1 X55.699 Y115.438 E.04895
G1 X55.699 Y24.469 E4.03492
G1 X56.297 Y22.595 E.08726
G1 X56.784 Y21.946 E.03597
G1 X57.971 Y20.879 E.07081
G1 X58.979 Y20.412 E.04927
G1 X60.062 Y20.199 E.04895
G1 X115.983 Y20.203 E2.48035
G1 X117.017 Y20.411 E.04681
G1 X118.028 Y20.881 E.04945
G1 X119.254 Y21.971 E.07277
G1 X119.724 Y22.77 E.04109
G1 X119.515 Y23.111 F10800
G1 F1200
G1 X119.679 Y23.393 E.01448
G1 X119.965 Y24.575 E.05395
G1 X139.428 Y24.572 E.86325
;WIPE_START
G1 F8640
G1 X136.136 Y24.573 E-.76
;WIPE_END
G1 E-.04 F2100
G1 Z.7 F10800
G1 X144.277 Y24.572
G1 Z.3
G1 E.8 F2100
G1 F1200
G1 X170.56 Y24.568 E1.16577
G1 X171.398 Y24.746 E.038
G1 X172.23 Y25.11 E.04027
G1 X173.691 Y26.47 E.08853
G1 X174.209 Y27.474 E.05013
G1 X174.446 Y28.582 E.05022
G1 X174.387 Y35.888 E.32409
G1 X174.096 Y36.798 E.04238
G1 X173.867 Y37.164 E.01915
G1 X173.579 Y37.622 F10800
G1 F1200
G1 X173.425 Y37.87 E.01294
G1 X172.483 Y38.72 E.0563
G1 X171.368 Y39.266 E.05502
G1 X170.557 Y39.432 E.03673
G1 X119.945 Y39.445 E2.24488
G1 X119.945 Y40.055 E.02704
G1 X172.913 Y40.055 E2.34938
G1 X173.829 Y40.224 E.04129
G1 X174.006 Y40.3 E.00856
G1 X174.393 Y40.465 F10800
G1 F1200
G1 X174.712 Y40.601 E.0154
G1 X175.953 Y41.669 E.0726
G1 X176.641 Y42.8 E.05874
G1 X176.945 Y44.07 E.05794
G1 X176.945 Y100.003 E2.48092
G1 X176.4 Y101.717 E.07975
G1 X175.964 Y102.302 E.03239
G1 X174.853 Y103.311 E.06653
G1 X173.93 Y103.743 E.04525
G1 X172.92 Y103.945 E.04565
G1 X165.808 Y103.945 E.31548
;WIPE_START
G1 F8640
G1 X169.099 Y103.945 E-.76
;WIPE_END
G1 E-.04 F2100
G1 Z.7 F10800
G1 X164.453 Y103.945
G1 Z.3
G1 E.8 F2100
G1 F1200
G1 X119.942 Y103.945 E1.97426
G1 X119.898 Y115.807 E.52613
G1 X119.815 Y116.084 E.01282
G1 X119.694 Y116.485 F10800
G1 F1200
G1 X119.603 Y116.784 E.01385
G1 X118.901 Y117.895 E.05828
G1 X117.736 Y118.885 E.06781
G1 X117.106 Y119.181 E.03089
G1 X116.42 Y119.384 E.03173
G1 X59.998 Y119.445 E2.5026
G1 X58.283 Y118.9 E.0798
G1 X57.698 Y118.464 E.03239
G1 X56.689 Y117.353 E.06653
G1 X56.257 Y116.43 E.04525
G1 X56.055 Y115.42 E.04565
G1 X56.055 Y24.497 E4.03291
G1 X56.6 Y22.783 E.07975
M73 P1 R191
M73 Q1 S193
G1 X57.036 Y22.198 E.03239
G1 X58.147 Y21.189 E.06653
G1 X59.07 Y20.757 E.04525
G1 X60.08 Y20.555 E.04565
G1 X115.964 Y20.558 E2.47875
G1 X116.925 Y20.755 E.04347
G1 X117.853 Y21.191 E.04549
G1 X118.995 Y22.217 E.06808
G1 X119.298 Y22.739 E.02677
G1 X119.089 Y23.08 F10800
G1 F1200
G1 X119.357 Y23.547 E.02388
G1 X119.575 Y24.467 E.04197
G1 X119.587 Y24.931 E.02056
G1 X144.264 Y24.927 E1.09456
;WIPE_START
G1 F8640
G1 X140.973 Y24.928 E-.76
;WIPE_END
G1 E-.04 F2100
G1 Z.7 F10800
G1 X149.114 Y24.927
G1 Z.3
G1 E.8 F2100
G1 F1200
G1 X170.541 Y24.924 E.95038
G1 X171.304 Y25.09 E.03466
G1 X172.058 Y25.423 E.03658
G1 X173.39 Y26.662 E.08066
G1 X173.867 Y27.574 E.04565
G1 X174.09 Y28.599 E.04654
G1 X174.04 Y35.807 E.31972
G1 X173.781 Y36.63 E.03824
G1 X173.495 Y37.093 F10800
G1 F1200
G1 X173.166 Y37.624 E.02772
G1 X172.302 Y38.413 E.0519
G1 X171.273 Y38.922 E.05093
G1 X170.538 Y39.076 E.03328
G1 X119.59 Y39.09 E2.25982
G1 X119.59 Y40.41 E.05858
G1 X172.896 Y40.41 E2.36441
G1 X173.743 Y40.57 E.03821
G1 X174.072 Y40.712 E.01589
G1 X174.459 Y40.879 F10800
G1 F1200
G1 X174.545 Y40.916 E.00418
G1 X175.698 Y41.919 E.06778
G1 X176.303 Y42.911 E.05152
G1 X176.59 Y44.092 E.05391
G1 X176.59 Y99.976 E2.47875
G1 X176.096 Y101.53 E.07229
G1 X175.71 Y102.053 E.02883
G1 X174.678 Y103 E.06217
G1 X173.798 Y103.412 E.04306
G1 X172.903 Y103.59 E.04048
G1 X167.116 Y103.59 E.25671
;WIPE_START
G1 F8640
G1 X170.407 Y103.59 E-.76
;WIPE_END
G1 E-.04 F2100
G1 Z.7 F10800
G1 X165.76 Y103.59
G1 Z.3
G1 E.8 F2100
G1 F1200
G1 X119.587 Y103.59 E2.04799
G1 X119.55 Y115.731 E.53854
M73 Q1 S192
G1 X119.414 Y116.193 E.02134
G1 X119.296 Y116.593 F10800
G1 F1200
G1 X118.648 Y117.643 E.05469
G1 X117.563 Y118.573 E.0634
G1 X116.967 Y118.853 E.0292
G1 X116.344 Y119.036 E.0288
G1 X60.025 Y119.09 E2.49805
G1 X58.47 Y118.596 E.07233
G1 X57.947 Y118.21 E.02884
G1 X57 Y117.178 E.06217
G1 X56.588 Y116.298 E.04306
G1 X56.41 Y115.403 E.04048
G1 X56.41 Y24.524 E4.03093
G1 X56.904 Y22.97 E.07229
G1 X57.29 Y22.447 E.02883
G1 X58.322 Y21.5 E.06217
G1 X59.202 Y21.088 E.04306
G1 X60.097 Y20.91 E.04049
G1 X115.946 Y20.914 E2.47716
G1 X116.83 Y21.098 E.04009
G1 X117.676 Y21.5 E.04152
G1 X118.734 Y22.461 E.0634
G1 X118.876 Y22.708 E.01263
G1 X118.671 Y23.049 F10800
G1 F1200
G1 X119.017 Y23.654 E.03089
G1 X119.225 Y24.529 E.03991
G1 X119.233 Y25.286 E.03359
G1 X149.101 Y25.282 E1.3248
;WIPE_START
G1 F8640
G1 X145.81 Y25.283 E-.76
;WIPE_END
G1 E-.04 F2100
G1 Z.7 F10800
G1 X153.951 Y25.282
G1 Z.3
G1 E.8 F2100
G1 F1200
G1 X170.521 Y25.28 E.73497
G1 X171.209 Y25.433 E.03126
G1 X171.886 Y25.736 E.03292
G1 X173.089 Y26.853 E.07283
G1 X173.541 Y27.717 E.04323
G1 X173.734 Y28.616 E.0408
G1 X173.692 Y35.728 E.31545
G1 X173.656 Y35.845 E.00542
G1 X173.41 Y36.557 F10800
G1 F1200
G1 X172.906 Y37.381 E.04282
G1 X172.12 Y38.107 E.04749
G1 X171.175 Y38.58 E.04683
G1 X170.519 Y38.72 E.02978
G1 X119.611 Y38.734 E2.25802
G1 X119.234 Y38.661 E.01703
G1 X119.234 Y40.766 E.09338
G1 X172.879 Y40.766 E2.37942
G1 X173.656 Y40.915 E.03507
G1 X174.138 Y41.126 E.02334
G1 X174.537 Y41.371 F10800
G1 F1200
G1 X175.442 Y42.167 E.05344
G1 X175.983 Y43.069 E.04668
G1 X176.234 Y44.112 E.04758
G1 X176.234 Y99.949 E2.47662
G1 X175.792 Y101.344 E.06489
G1 X175.455 Y101.804 E.02531
G1 X174.5 Y102.691 E.05783
G1 X173.706 Y103.068 E.03897
G1 X172.885 Y103.234 E.03714
G1 X168.423 Y103.234 E.1979
;WIPE_START
G1 F8640
G1 X171.715 Y103.234 E-.76
;WIPE_END
G1 E-.04 F2100
G1 Z.7 F10800
G1 X167.068 Y103.234
G1 Z.3
G1 E.8 F2100
G1 F1200
G1 X119.233 Y103.234 E2.12174
G1 X119.201 Y115.657 E.55103
G1 X119.016 Y116.301 E.0297
G1 X118.804 Y116.727 F10800
G1 F1200
G1 X118.394 Y117.393 E.03465
G1 X117.389 Y118.263 E.05898
G1 X116.854 Y118.516 E.02627
G1 X116.268 Y118.687 E.02705
G1 X60.052 Y118.734 E2.49348
G1 X58.656 Y118.292 E.06492
G1 X58.196 Y117.955 E.02531
G1 X57.309 Y117 E.05783
G1 X56.932 Y116.206 E.03897
G1 X56.766 Y115.385 E.03714
G1 X56.766 Y24.551 E4.02892
G1 X57.208 Y23.156 E.06489
G1 X57.545 Y22.696 E.02531
G1 X58.5 Y21.809 E.05783
G1 X59.294 Y21.432 E.03898
G1 X60.115 Y21.266 E.03715
G1 X115.927 Y21.269 E2.47551
G1 X116.735 Y21.441 E.03665
G1 X117.497 Y21.809 E.03753
G1 X118.443 Y22.676 E.05692
G1 X118.253 Y23.018 F10800
G1 F1200
G1 X118.677 Y23.76 E.0379
G1 X118.874 Y24.591 E.03785
G1 X118.878 Y25.779 E.0527
G1 X119.499 Y25.635 E.02828
G1 X153.908 Y25.635 E1.52622
;WIPE_START
G1 F8640
M73 P1 R190
G1 X150.617 Y25.635 E-.76
;WIPE_END
G1 E-.04 F2100
G1 Z.7 F10800
G1 X158.766 Y25.635
G1 Z.3
G1 E.8 F2100
G1 F1200
G1 X170.5 Y25.635 E.52046
G1 X171.111 Y25.775 E.0278
G1 X171.713 Y26.048 E.02931
G1 X172.79 Y27.047 E.06514
G1 X173.199 Y27.818 E.03873
G1 X173.379 Y28.635 E.0371
G1 X173.353 Y33.94 E.2353
;WIPE_START
G1 F8640
G1 X173.369 Y30.648 E-.76
;WIPE_END
G1 E-.04 F2100
G1 Z.7 F10800
G1 X173.293 Y35.823
G1 Z.3
G1 E.8 F2100
G1 F1200
G1 X173.149 Y36.302 E.02217
G1 X172.646 Y37.137 E.04324
G1 X171.897 Y37.828 E.04522
G1 X171.077 Y38.237 E.04063
G1 X170.499 Y38.365 E.02626
G1 X119.632 Y38.378 E2.25621
G1 X118.878 Y38.214 E.03421
G1 X118.878 Y41.122 E.12895
G1 X172.863 Y41.122 E2.39446
G1 X173.532 Y41.249 E.0302
G1 X174.204 Y41.543 E.03257
G1 X174.624 Y41.914 F10800
G1 F1200
G1 X175.184 Y42.413 E.03328
G1 X175.663 Y43.226 E.04185
G1 X175.878 Y44.133 E.04134
G1 X175.878 Y99.922 E2.4745
G1 X175.487 Y101.159 E.05756
G1 X175.199 Y101.557 E.02182
G1 X174.32 Y102.383 E.05349
G1 X173.612 Y102.724 E.03487
G1 X172.867 Y102.878 E.03375
G1 X169.731 Y102.878 E.13907
;WIPE_START
G1 F8640
G1 X172.867 Y102.878 E-.72399
G1 X173.019 Y102.847 E-.03601
;WIPE_END
G1 E-.04 F2100
G1 Z.7 F10800
G1 X168.376 Y102.878
G1 Z.3
