; generated by PrusaSlicer 2.4.2+win64 on 2023-04-24 at 19:06:25 UTC

; 

; external perimeters extrusion width = 0.60mm
; perimeters extrusion width = 0.50mm
; infill extrusion width = 0.50mm
; solid infill extrusion width = 0.50mm
; top infill extrusion width = 0.45mm
; first layer extrusion width = 0.42mm

; external perimeters extrusion width = 0.60mm
; perimeters extrusion width = 0.50mm
; infill extrusion width = 0.50mm
; solid infill extrusion width = 0.50mm
; top infill extrusion width = 0.45mm
; first layer extrusion width = 0.42mm

; external perimeters extrusion width = 0.60mm
; perimeters extrusion width = 0.50mm
; infill extrusion width = 0.50mm
; solid infill extrusion width = 0.50mm
; top infill extrusion width = 0.45mm
; first layer extrusion width = 0.42mm

; external perimeters extrusion width = 0.60mm
; perimeters extrusion width = 0.50mm
; infill extrusion width = 0.50mm
; solid infill extrusion width = 0.50mm
; top infill extrusion width = 0.45mm
; first layer extrusion width = 0.42mm

M73 P0 R202
M73 Q0 S203
M201 X1000 Y1000 Z200 E5000 ; sets maximum accelerations, mm/sec^2
M203 X200 Y200 Z12 E120 ; sets maximum feedrates, mm / sec
M204 P1250 R1250 T1250 ; sets acceleration (P, T) and retract acceleration (R), mm/sec^2
M205 X8.00 Y8.00 Z0.40 E4.50 ; sets the jerk limits, mm/sec
M205 S0 T0 ; sets the minimum extruding and travel feed rate, mm/sec
M107
;TYPE:Custom
M862.3 P "MK3S" ; printer model check
M862.1 P0.4 ; nozzle diameter check
M115 U3.10.1 ; tell printer latest fw version
G90 ; use absolute coordinates
M83 ; extruder relative mode
M104 S240 ; set extruder temp
M140 S100 ; set bed temp
M190 S100 ; wait for bed temp
M109 S240 ; wait for extruder temp
G28 W ; home all without mesh bed level
G80 ; mesh bed leveling
G1 Z0.2 F720
G1 Y-3 F1000 ; go outside print area
G92 E0
G1 X60 E9 F1000 ; intro line
G1 X100 E12.5 F1000 ; intro line
G92 E0
M221 S95

; Don't change E values below. Excessive value can damage the printer.

G21 ; set units to millimeters
G90 ; use absolute coordinates
M83 ; use relative distances for extrusion
M900 K0.04 ; Filament gcode LA 1.5
M900 K20 ; Filament gcode LA 1.0
M107
;LAYER_CHANGE
;Z:0.3
;HEIGHT:0.3
;BEFORE_LAYER_CHANGE
G92 E0.0
;0.3


M73 P0 R201
G1 E-.8 F2100
G1 Z.4 F10800
;AFTER_LAYER_CHANGE
;0.3
G1 X62.667 Y25.578
G1 Z.3
G1 E.8 F2100
M204 S1000
;TYPE:Skirt/Brim
;WIDTH:0.42
G1 F1200
G1 X63.711 Y24.71 E.06024
G1 X64.618 Y24.523 E.04109
G1 X122.488 Y24.219 E2.56682
G1 X177.5 Y24.219 E2.44006
G1 X178.8 Y24.61 E.06024
G1 X179.669 Y25.654 E.06024
G1 X179.856 Y26.574 E.04163
G1 X179.856 Y76.574 E2.21774
G1 X179.095 Y78.308 E.08398
G1 X127.257 Y125.993 E3.12412
G1 X125.662 Y126.615 E.07592
G1 X65.662 Y126.615 E2.66129
G1 X64.361 Y126.223 E.06024
G1 X63.493 Y125.179 E.06024
G1 X63.307 Y124.324 E.0388
G1 X62.276 Y86.943 E1.65865
G1 X62.275 Y26.878 E2.66417
G1 X62.649 Y25.635 E.05758
;WIPE_START
M73 Q0 S202
G1 F8640
G1 X63.711 Y24.71 E-.32524
G1 X64.618 Y24.523 E-.21391
G1 X65.575 Y24.518 E-.22086
;WIPE_END
G1 E-.04 F2100
G1 Z.7 F10800
G1 X131.174 Y122.148
G1 Z.3
G1 E.8 F2100
G1 F1200
G1 X131.17 Y88.729 E1.48229
G1 X130.844 Y87.287 E.06557
G1 X130.16 Y86.029 E.0635
G1 X128.944 Y84.801 E.07668
G1 X127.609 Y84.068 E.06757
G1 X126.374 Y83.773 E.0563
G1 X125.143 Y83.757 E.05463
G1 X125.143 Y82.079 E.07442
G1 X174.725 Y82.086 E2.19921
G1 X175.25 Y82.086 F10800
G1 F1200
G1 X177.982 Y82.086 E.12116
G1 X179.361 Y81.797 E.06251
G1 X180.6 Y81.172 E.06152
G1 X182.342 Y79.295 E.1136
G1 X182.802 Y78.196 E.05285
G1 X183.012 Y77.037 E.05223
G1 X183.012 Y26.079 E2.26025
G1 X182.58 Y24.357 E.07873
G1 X181.649 Y22.914 E.07618
G1 X180.202 Y21.725 E.08306
G1 X179.147 Y21.28 E.05083
G1 X178.009 Y21.065 E.05132
G1 X122.024 Y21.062 E2.48324
G1 X120.792 Y21.3 E.05566
G1 X120.486 Y21.426 E.01467
G1 X120.137 Y21.37 E.01565
G1 X64.141 Y21.366 E2.48369
G1 X62.469 Y21.773 E.07634
G1 X61.069 Y22.649 E.07326
G1 X59.786 Y24.165 E.0881
G1 X59.328 Y25.258 E.05256
G1 X59.119 Y26.416 E.05218
G1 X59.119 Y87.35 E2.70271
G1 X59.414 Y88.762 E.064
G1 X59.855 Y89.7 E.04598
G1 X60.151 Y90.079 E.02131
G1 X60.15 Y124.807 E1.54034
G1 X60.562 Y126.431 E.07434
G1 X61.435 Y127.816 E.07264
G1 X62.94 Y129.1 E.08774
G1 X64.04 Y129.561 E.05287
G1 X65.199 Y129.771 E.05225
G1 X126.209 Y129.771 E2.70611
G1 X127.834 Y129.359 E.07434
G1 X129.219 Y128.485 E.07264
G1 X130.503 Y126.98 E.08774
G1 X130.964 Y125.881 E.05288
G1 X131.174 Y124.722 E.05226
G1 X131.174 Y122.631 E.09273
G1 X130.818 Y122.475 F10800
G1 F1200
G1 X130.815 Y88.749 E1.49593
G1 X130.519 Y87.434 E.05978
G1 X129.889 Y86.261 E.05904
G1 X128.71 Y85.07 E.07434
G1 X127.461 Y84.392 E.06304
G1 X126.313 Y84.123 E.05229
G1 X124.787 Y84.11 E.06769
G1 X124.787 Y81.724 E.10586
G1 X175.112 Y81.73 E2.23213
G1 X175.637 Y81.73 F10800
G1 F1200
G1 X177.964 Y81.731 E.10321
G1 X179.222 Y81.468 E.057
G1 X180.411 Y80.869 E.05907
G1 X182.026 Y79.127 E.10535
G1 X182.456 Y78.112 E.04891
G1 X182.656 Y77.021 E.04921
G1 X182.656 Y26.1 E2.25857
G1 X182.265 Y24.523 E.07206
G1 X181.4 Y23.17 E.07125
G1 X180.04 Y22.042 E.07836
G1 X179.026 Y21.615 E.04881
G1 X177.993 Y21.421 E.04661
G1 X122.041 Y21.418 E2.48174
G1 X120.88 Y21.646 E.0525
G1 X120.529 Y21.794 E.01687
G1 X120.122 Y21.725 E.01834
G1 X64.162 Y21.722 E2.48208
G1 X62.631 Y22.09 E.06984
M73 P0 R200
G1 X61.321 Y22.901 E.06835
G1 X60.103 Y24.329 E.08326
G1 X59.674 Y25.342 E.04877
G1 X59.474 Y26.432 E.04916
G1 X59.474 Y87.331 E2.70118
G1 X59.744 Y88.63 E.05882
G1 X60.167 Y89.529 E.04408
G1 X60.506 Y89.953 E.02408
G1 X60.505 Y124.785 E1.54495
G1 X60.878 Y126.267 E.06779
G1 X61.688 Y127.565 E.06786
G1 X63.105 Y128.784 E.0829
G1 X64.124 Y129.215 E.04906
G1 X65.215 Y129.416 E.04922
G1 X126.188 Y129.416 E2.70442
G1 X127.67 Y129.043 E.06779
G1 X128.967 Y128.233 E.06786
G1 X130.186 Y126.816 E.0829
G1 X130.618 Y125.797 E.04907
G1 X130.818 Y124.705 E.04923
G1 X130.818 Y122.958 E.0775
G1 X130.462 Y122.802 F10800
G1 F1200
G1 X130.459 Y88.768 E1.50957
G1 X130.194 Y87.58 E.05398
G1 X129.588 Y86.452 E.05678
G1 X128.477 Y85.339 E.06975
G1 X127.356 Y84.733 E.05657
G1 X126.29 Y84.479 E.0486
G1 X124.432 Y84.463 E.08242
G1 X124.432 Y81.368 E.13728
G1 X175.498 Y81.375 E2.26505
G1 X176.023 Y81.375 F10800
G1 F1200
G1 X177.945 Y81.375 E.08523
G1 X179.125 Y81.126 E.05349
G1 X180.221 Y80.567 E.05459
G1 X181.712 Y78.959 E.09722
G1 X182.11 Y78.027 E.04498
G1 X182.301 Y77.004 E.04615
G1 X182.301 Y26.121 E2.25689
G1 X181.949 Y24.688 E.06545
G1 X181.15 Y23.424 E.06633
G1 X179.876 Y22.359 E.07367
G1 X178.94 Y21.96 E.04511
G1 X177.976 Y21.777 E.04353
G1 X122.059 Y21.773 E2.4802
G1 X120.969 Y21.99 E.04928
G1 X120.574 Y22.164 E.01914
G1 X120.105 Y22.081 E.02111
G1 X64.183 Y22.077 E2.48045
G1 X62.792 Y22.409 E.0634
M73 Q0 S201
G1 X61.571 Y23.155 E.06345
G1 X60.419 Y24.494 E.07836
G1 X60.009 Y25.462 E.04665
G1 X59.83 Y26.448 E.04444
G1 X59.83 Y87.313 E2.69967
G1 X60.075 Y88.497 E.05363
G1 X60.48 Y89.357 E.04214
G1 X60.862 Y89.826 E.02682
G1 X60.861 Y124.762 E1.54961
G1 X61.216 Y126.152 E.06362
G1 X61.942 Y127.314 E.06076
G1 X63.271 Y128.468 E.07808
G1 X64.209 Y128.869 E.04524
G1 X65.232 Y129.06 E.04616
G1 X126.165 Y129.06 E2.70268
G1 X127.555 Y128.705 E.06362
G1 X128.717 Y127.979 E.06076
G1 X129.871 Y126.65 E.07808
G1 X130.272 Y125.712 E.04524
G1 X130.463 Y124.689 E.04617
G1 X130.463 Y123.285 E.06225
G1 X130.107 Y123.129 F10800
G1 F1200
G1 X130.104 Y88.788 E1.52319
G1 X129.853 Y87.684 E.05025
G1 X129.289 Y86.646 E.05239
G1 X128.246 Y85.611 E.06516
G1 X127.21 Y85.058 E.0521
G1 X126.229 Y84.83 E.04466
G1 X124.076 Y84.817 E.0955
G1 X124.076 Y81.012 E.16875
G1 X175.885 Y81.019 E2.29797
G1 X176.41 Y81.019 F10800
G1 F1200
G1 X177.926 Y81.019 E.06724
G1 X179.026 Y80.783 E.04992
G1 X180.031 Y80.265 E.05011
G1 X181.397 Y78.791 E.08913
G1 X181.775 Y77.905 E.04274
G1 X181.945 Y76.988 E.04138
G1 X181.945 Y26.144 E2.25519
G1 X181.611 Y24.802 E.06131
G1 X180.9 Y23.678 E.059
G1 X179.711 Y22.675 E.06901
G1 X178.853 Y22.306 E.04141
G1 X177.959 Y22.132 E.04041
G1 X122.077 Y22.129 E2.47863
G1 X121.061 Y22.335 E.04598
G1 X120.62 Y22.534 E.02146
G1 X120.089 Y22.437 E.02396
G1 X64.204 Y22.433 E2.47875
G1 X62.903 Y22.748 E.05937
G1 X61.822 Y23.409 E.05621
G1 X60.735 Y24.66 E.0735
G1 X60.355 Y25.547 E.04281
G1 X60.185 Y26.465 E.04139
G1 X60.185 Y87.295 E2.69814
G1 X60.406 Y88.365 E.04844
G1 X60.791 Y89.184 E.04016
G1 X61.217 Y89.696 E.02953
G1 X61.217 Y124.74 E1.55439
G1 X61.533 Y125.989 E.05714
G1 X62.197 Y127.065 E.05606
G1 X63.437 Y128.152 E.07317
G1 X64.33 Y128.534 E.04309
G1 X65.248 Y128.704 E.04139
G1 X126.143 Y128.704 E2.70099
G1 X127.392 Y128.388 E.05713
G1 X128.467 Y127.724 E.05606
G1 X129.555 Y126.484 E.07317
G1 X129.937 Y125.59 E.04309
G1 X130.107 Y124.673 E.0414
G1 X130.107 Y123.612 E.04703
G1 X129.751 Y123.456 F10800
G1 F1200
G1 X129.748 Y88.809 E1.53678
G1 X129.512 Y87.788 E.04645
M73 P1 R200
M73 Q1 S201
G1 X128.99 Y86.84 E.04803
G1 X128.056 Y85.912 E.05839
G1 X127.064 Y85.383 E.04987
G1 X126.17 Y85.181 E.04063
G1 X123.72 Y85.171 E.10867
G1 X123.72 Y80.657 E.20025
G1 X176.271 Y80.664 E2.33089
M73 P1 R199
G1 X176.796 Y80.664 F10800
G1 F1200
G1 X177.906 Y80.664 E.04924
G1 X178.927 Y80.441 E.04631
G1 X179.839 Y79.964 E.04564
G1 X181.082 Y78.622 E.08117
G1 X181.43 Y77.819 E.0388
G1 X181.59 Y76.971 E.03829
G1 X181.59 Y26.165 E2.2535
G1 X181.294 Y24.966 E.05477
G1 X180.648 Y23.93 E.05415
G1 X179.544 Y22.99 E.06432
G1 X178.765 Y22.651 E.0377
G1 X177.941 Y22.488 E.03724
G1 X122.095 Y22.485 E2.47703
G1 X121.154 Y22.678 E.04263
G1 X120.667 Y22.905 E.02384
G1 X120.071 Y22.792 E.02687
G1 X64.225 Y22.789 E2.47707
G1 X63.062 Y23.067 E.05301
G1 X62.07 Y23.665 E.05138
G1 X61.05 Y24.827 E.0686
G1 X60.701 Y25.633 E.03895
G1 X60.541 Y26.481 E.03829
G1 X60.541 Y87.278 E2.6966
G1 X60.737 Y88.233 E.04326
G1 X61.103 Y89.011 E.03813
G1 X61.573 Y89.564 E.03222
G1 X61.572 Y124.719 E1.55927
G1 X61.851 Y125.828 E.05072
G1 X62.453 Y126.817 E.05137
G1 X63.605 Y127.838 E.06827
G1 X64.416 Y128.189 E.03921
G1 X65.265 Y128.349 E.0383
G1 X126.121 Y128.349 E2.69928
G1 X127.23 Y128.07 E.05072
G1 X128.22 Y127.468 E.05137
G1 X129.24 Y126.316 E.06827
G1 X129.591 Y125.504 E.03921
G1 X129.751 Y124.656 E.03831
G1 X129.751 Y123.939 E.03177
G1 X129.396 Y123.783 F10800
G1 F1200
G1 X129.392 Y88.83 E1.55036
G1 X129.172 Y87.895 E.04261
G1 X128.692 Y87.035 E.04368
G1 X127.865 Y86.214 E.05168
G1 X126.918 Y85.709 E.0476
G1 X126.114 Y85.532 E.03655
G1 X123.365 Y85.527 E.12192
G1 X123.365 Y80.301 E.23178
G1 X176.658 Y80.308 E2.3638
G1 X177.183 Y80.308 F10800
M73 Q1 S200
G1 F1200
G1 X177.888 Y80.308 E.03126
G1 X178.783 Y80.115 E.04064
G1 X179.647 Y79.663 E.04322
G1 X180.769 Y78.452 E.07324
G1 X181.084 Y77.732 E.03486
G1 X181.234 Y76.954 E.03515
G1 X181.234 Y26.186 E2.2518
G1 X180.976 Y25.128 E.0483
G1 X180.394 Y24.181 E.04929
G1 X179.376 Y23.304 E.05961
G1 X178.675 Y22.995 E.03398
G1 X177.923 Y22.844 E.03402
G1 X122.114 Y22.84 E2.47539
G1 X121.249 Y23.022 E.0392
G1 X120.714 Y23.277 E.02629
G1 X120.054 Y23.148 E.02986
G1 X64.245 Y23.144 E2.47538
G1 X63.22 Y23.387 E.04674
G1 X62.317 Y23.922 E.04655
G1 X61.364 Y24.996 E.06369
G1 X61.046 Y25.72 E.03507
G1 X60.897 Y26.499 E.03515
G1 X60.897 Y87.26 E2.69505
G1 X61.068 Y88.101 E.03807
G1 X61.414 Y88.836 E.03605
G1 X61.929 Y89.431 E.03487
G1 X61.928 Y124.696 E1.56419
G1 X62.188 Y125.714 E.04659
G1 X62.71 Y126.57 E.04448
G1 X63.775 Y127.524 E.0634
G1 X64.504 Y127.843 E.03532
G1 X65.282 Y127.993 E.03515
G1 X126.099 Y127.993 E2.69751
G1 X127.116 Y127.732 E.04659
G1 X127.973 Y127.211 E.04448
G1 X128.926 Y126.146 E.0634
G1 X129.246 Y125.417 E.03532
G1 X129.396 Y124.639 E.03516
G1 X129.396 Y124.267 E.0165
G1 X129.04 Y124.111 F10800
G1 F1200
G1 X129.037 Y88.851 E1.56391
G1 X128.832 Y88.003 E.03869
G1 X128.395 Y87.232 E.03934
G1 X127.675 Y86.515 E.04506
G1 X126.774 Y86.035 E.04529
G1 X126.059 Y85.884 E.0324
G1 X123.009 Y85.882 E.13529
G1 X123.009 Y79.945 E.26333
G1 X177.044 Y79.952 E2.39672
G1 X177.569 Y79.952 F10800
G1 F1200
G1 X177.868 Y79.953 E.01324
G1 X178.682 Y79.773 E.03698
G1 X179.453 Y79.364 E.03872
G1 X180.456 Y78.28 E.06548
G1 X180.74 Y77.643 E.03094
G1 X180.878 Y76.936 E.03195
G1 X180.878 Y26.207 E2.2501
G1 X180.657 Y25.288 E.04193
G1 X180.139 Y24.43 E.04444
G1 X179.206 Y23.618 E.05489
G1 X178.583 Y23.339 E.03025
G1 X177.904 Y23.199 E.03074
G1 X122.133 Y23.196 E2.47372
G1 X121.346 Y23.364 E.03571
G1 X120.763 Y23.65 E.02881
G1 X120.035 Y23.503 E.0329
G1 X64.265 Y23.5 E2.47368
G1 X63.375 Y23.708 E.04056
G1 X62.562 Y24.181 E.04172
G1 X61.677 Y25.167 E.05877
G1 X61.391 Y25.809 E.03118
G1 X61.252 Y26.516 E.03196
G1 X61.252 Y87.242 E2.69349
G1 X61.399 Y87.969 E.03288
M73 P1 R198
G1 X61.724 Y88.661 E.03393
G1 X62.159 Y89.153 E.02912
;WIPE_START
G1 F8640
G1 X61.724 Y88.661 E-.15158
G1 X61.399 Y87.969 E-.17666
G1 X61.252 Y87.242 E-.17119
G1 X61.252 Y86.114 E-.26057
;WIPE_END
G1 E-.04 F2100
G1 Z.7 F10800
G1 X62.284 Y93.689
G1 Z.3
G1 E.8 F2100
G1 F1200
G1 X62.283 Y124.673 E1.37429
G1 X62.526 Y125.598 E.04242
G1 X62.968 Y126.324 E.03772
G1 X63.946 Y127.211 E.05855
G1 X64.593 Y127.499 E.0314
G1 X65.3 Y127.637 E.03196
G1 X126.075 Y127.637 E2.69569
G1 X127.001 Y127.395 E.04242
G1 X127.727 Y126.953 E.03772
G1 X128.613 Y125.975 E.05855
G1 X128.901 Y125.328 E.0314
G1 X129.04 Y124.594 E.03315
G1 X128.685 Y124.438 F10800
G1 F1200
G1 X128.681 Y88.872 E1.5775
G1 X128.51 Y88.154 E.03273
G1 X128.126 Y87.466 E.03496
G1 X127.443 Y86.787 E.04271
G1 X126.632 Y86.362 E.04063
G1 X126.041 Y86.24 E.02675
G1 X122.653 Y86.238 E.15027
G1 X122.653 Y79.59 E.29487
G1 X177.431 Y79.597 E2.42964
G1 X177.991 Y79.564 F10800
G1 F1200
G1 X178.579 Y79.432 E.02673
G1 X179.258 Y79.065 E.03422
G1 X180.143 Y78.109 E.05778
G1 X180.406 Y77.517 E.02874
G1 X180.523 Y76.919 E.02702
G1 X180.523 Y26.227 E2.24844
G1 X180.337 Y25.445 E.03565
G1 X179.882 Y24.678 E.03958
G1 X179.035 Y23.931 E.05006
G1 X178.456 Y23.672 E.02817
G1 X177.886 Y23.555 E.02578
G1 X122.153 Y23.551 E2.47205
G1 X121.445 Y23.707 E.03214
G1 X120.763 Y24.048 E.03381
G1 X120.588 Y23.977 E.00838
G1 X120.017 Y23.859 E.02588
G1 X64.285 Y23.856 E2.47198
G1 X63.527 Y24.03 E.03448
G1 X62.805 Y24.442 E.03688
G1 X61.99 Y25.338 E.05373
G1 X61.724 Y25.935 E.02899
G1 X61.608 Y26.533 E.02702
G1 X61.608 Y87.224 E2.69192
G1 X61.742 Y87.875 E.0295
G1 X62.033 Y88.484 E.02992
G1 X62.144 Y88.607 E.00733
G1 X62.511 Y89.014 F10800
G1 F1200
G1 X62.64 Y89.158 E.00855
G1 X62.64 Y93.684 E.20075
;WIPE_START
G1 F8640
G1 X62.64 Y90.392 E-.76
;WIPE_END
G1 E-.04 F2100
G1 Z.7 F10800
G1 X62.639 Y106.57
G1 Z.3
G1 E.8 F2100
G1 F1200
G1 X62.639 Y124.649 E.80189
G1 X62.862 Y125.481 E.03821
M73 Q1 S199
G1 X63.227 Y126.08 E.03112
G1 X64.117 Y126.898 E.05362
G1 X64.719 Y127.165 E.02919
G1 X65.317 Y127.282 E.02702
G1 X126.052 Y127.282 E2.69388
G1 X126.883 Y127.059 E.03821
G1 X127.482 Y126.693 E.03112
G1 X128.301 Y125.803 E.05362
G1 X128.568 Y125.202 E.02919
G1 X128.609 Y124.99 E.00959
G1 X128.285 Y124.805 F10800
G1 F1200
G1 X128.329 Y124.586 E.00991
G1 X128.325 Y88.893 E1.58317
G1 X128.186 Y88.303 E.02687
G1 X127.855 Y87.697 E.03064
G1 X127.253 Y87.089 E.03794
G1 X126.49 Y86.689 E.03823
G1 X126.024 Y86.595 E.02107
G1 X122.298 Y86.593 E.16528
G1 X122.298 Y79.234 E.32641
G1 X177.817 Y79.241 E2.46256
G1 X178.554 Y79.047 F10800
G1 F1200
G1 X179.061 Y78.768 E.02569
G1 X179.831 Y77.936 E.05029
G1 X180.062 Y77.426 E.02481
G1 X180.167 Y76.901 E.02376
G1 X180.167 Y26.247 E2.24675
G1 X180.016 Y25.6 E.02949
G1 X179.623 Y24.923 E.03471
G1 X178.863 Y24.243 E.04524
G1 X178.362 Y24.015 E.0244
G1 X177.867 Y23.91 E.02243
G1 X122.173 Y23.907 E2.4703
G1 X121.558 Y24.046 E.02795
G1 X120.929 Y24.405 F10800
G1 F1200
G1 X120.845 Y24.477 E.00489
G1 X120.686 Y24.406 E.00772
;WIPE_START
G1 F8640
G1 X120.845 Y24.477 E-.04019
G1 X120.929 Y24.405 E-.02548
;WIPE_END
G1 E-.73433 F2100
G1 Z.7 F10800
G1 X89.763 Y24.213
G1 Z.3
G1 E.8 F2100
G1 F1200
G1 X64.304 Y24.211 E1.12921
G1 X63.677 Y24.353 E.02853
G1 X63.046 Y24.705 E.03204
G1 X62.301 Y25.512 E.0487
G1 X62.069 Y26.026 E.02504
G1 X61.964 Y26.551 E.02376
G1 X61.964 Y87.205 E2.69027
G1 X62.085 Y87.779 E.02604
G1 X62.123 Y87.857 E.00385
G1 X62.496 Y88.473 F10800
G1 F1200
